app/static/icons/wash.svg

<svg width="52" height="69" viewBox="0 0 52 69" fill="none" xmlns="http://www.w3.org/2000/svg">
<g clip-path="url(#clip0)">
<path d="M49.4445 22.1392H2.37578C1.28672 22.1392 0.410156 23.0157 0.410156 24.1048V29.3376C0.410156 29.9884 0.742188 30.5993 1.28672 30.9712L5.20469 33.5876C5.52344 33.8001 5.90859 33.9196 6.29375 33.9196H45.5266C45.9117 33.9196 46.2969 33.8001 46.6156 33.5876L50.5336 30.9712C51.0781 30.6126 51.4102 29.9884 51.4102 29.3376V24.1048C51.4102 23.0157 50.5336 22.1392 49.4445 22.1392Z" fill="white"/>
<path d="M11.5663 42.2868C10.8093 41.5696 9.62725 41.5696 8.87021 42.2868C7.80771 43.2962 4.34131 46.8024 4.34131 49.5915C4.34131 52.8321 6.98428 55.4751 10.2249 55.4751C13.4655 55.4751 16.1085 52.8321 16.1085 49.5915C16.1085 46.8024 12.6288 43.2962 11.5663 42.2868Z" fill="white"/>
<path d="M42.9501 42.2868C42.1931 41.5696 41.011 41.5696 40.254 42.2868C39.1915 43.2962 35.7251 46.8024 35.7251 49.5915C35.7251 52.8321 38.3681 55.4751 41.6087 55.4751C44.8493 55.4751 47.4923 52.8321 47.4923 49.5915C47.4923 46.8024 44.0126 43.2962 42.9501 42.2868Z" fill="white"/>
<path d="M27.2648 55.3688C26.5078 54.6516 25.3257 54.6516 24.5687 55.3688C23.5062 56.3782 20.0398 59.8845 20.0398 62.6735C20.0398 65.9141 22.6828 68.5571 25.9234 68.5571C29.164 68.5571 31.807 65.9141 31.807 62.6735C31.7937 59.8845 28.3273 56.3782 27.2648 55.3688Z" fill="white"/>
<path d="M27.2648 38.3688C26.5078 37.6516 25.3257 37.6516 24.5687 38.3688C23.5062 39.3782 20.0398 42.8845 20.0398 45.6735C20.0398 48.9141 22.6828 51.5571 25.9234 51.5571C29.164 51.5571 31.807 48.9141 31.807 45.6735C31.7937 42.8845 28.3273 39.3782 27.2648 38.3688Z" fill="white"/>
<path d="M42.1399 12.3243C41.9672 11.8462 41.6219 11.4478 41.1704 11.222L37.2524 9.25635C36.9735 9.12354 36.6813 9.04385 36.3758 9.04385H33.1086V2.52275C33.1086 1.43369 32.2321 0.557129 31.143 0.557129H20.6774C19.5883 0.557129 18.7118 1.43369 18.7118 2.52275V9.05713H15.4446C15.1391 9.05713 14.8336 9.12354 14.568 9.26963L10.65 11.222C10.1985 11.4478 9.85317 11.8462 9.68052 12.3243L7.60864 18.2079H44.2251L42.1399 12.3243Z" fill="white"/>
</g>
<defs>
<clipPath id="clip0">
<rect width="51" height="68" fill="white" transform="translate(0.410156 0.557129)"/>
</clipPath>
</defs>
</svg>

<svg xmlns="http://www.w3.org/2000/svg" xmlns:xlink="http://www.w3.org/1999/xlink" width="52" height="69" fill="none"><g clip-path="url(#A)" fill="#fff"><path d="M49.445 22.14H2.376A1.96 1.96 0 0 0 .41 24.105v5.233c0 .65.332 1.262.877 1.634l3.918 2.616c.32.212.704.332 1.09.332h39.233c.385 0 .77-.12 1.09-.332l3.918-2.616a1.97 1.97 0 0 0 .877-1.634v-5.233a1.96 1.96 0 0 0-1.966-1.966z"/><use xlink:href="#B"/><path d="M42.95 42.287a1.96 1.96 0 0 0-2.696 0c-1.062 1.01-4.53 4.516-4.53 7.305 0 3.24 2.643 5.884 5.884 5.884s5.884-2.643 5.884-5.884c0-2.79-3.48-6.295-4.542-7.305z"/><use xlink:href="#C"/><path d="M27.265 38.37a1.96 1.96 0 0 0-2.696 0c-1.062 1-4.53 4.516-4.53 7.305a5.9 5.9 0 0 0 5.884 5.884 5.9 5.9 0 0 0 5.884-5.884c-.013-2.8-3.48-6.295-4.542-7.305zM42.14 12.324a1.98 1.98 0 0 0-.969-1.102l-3.918-1.966a2.03 2.03 0 0 0-.877-.212H33.1v-6.52A1.96 1.96 0 0 0 31.143.557H20.677a1.96 1.96 0 0 0-1.966 1.966v6.534h-3.267a1.82 1.82 0 0 0-.877.212L10.65 11.22a1.98 1.98 0 0 0-.969 1.102L7.6 18.208h36.616l-2.085-5.884z"/></g><defs><clipPath id="A"><path fill="#fff" transform="translate(.41 .557)" d="M0 0h51v68H0z"/></clipPath><path id="B" d="M11.566 42.287a1.96 1.96 0 0 0-2.696 0c-1.062 1.01-4.53 4.516-4.53 7.305 0 3.24 2.643 5.884 5.884 5.884s5.884-2.643 5.884-5.884c0-2.79-3.48-6.295-4.542-7.305z"/><path id="C" d="M27.265 55.37a1.96 1.96 0 0 0-2.696 0c-1.062 1.01-4.53 4.516-4.53 7.305 0 3.24 2.643 5.884 5.884 5.884s5.884-2.643 5.884-5.884c-.013-2.79-3.48-6.295-4.542-7.305z"/></defs></svg>
